casedrop/img/errors/error-withdraw.svg

<svg width="133" height="137" viewBox="0 0 133 137" fill="none" xmlns="http://www.w3.org/2000/svg">
<path d="M63.56 21.1865C31.59 21.1865 5.66111 47.1154 5.66111 79.0854C5.66111 111.055 31.59 136.931 63.56 136.931C95.53 136.931 121.405 111.002 121.405 79.0854C121.405 47.1688 95.4765 21.1865 63.56 21.1865ZM26.0834 70.9592H41.5338L33.6749 63.5815L37.4173 59.6254L50.248 71.7077L48.3769 76.4123H26.0834V70.9592ZM87.5642 111.911C85.5861 121.908 75.375 115.118 71.5792 112.499C60.9938 105.121 56.5565 115.279 51.2103 117.738C45.7038 120.304 38.9142 116.081 39.3419 108.062C39.93 97.5831 50.4084 92.6646 58 95.2842C64.8965 97.6365 67.9438 101.432 73.7177 102.181C78.4757 102.822 89.168 103.945 87.5642 111.911ZM100.983 76.3588H78.6896L76.8184 71.6542L89.6492 59.5719L93.3915 63.5281L85.5327 70.9058H100.983V76.3588ZM106.49 31.6115L100.662 26.4258L119.32 5.36191L125.148 10.5477L106.49 31.6115ZM116.433 42.6246L111.889 36.2627L128.035 24.7684L132.579 31.1304L116.433 42.6246ZM23.4638 27.2277L11.0073 6.59152L17.69 2.52844L30.1465 23.1111L23.4638 27.2277ZM95.5834 0.0692139C98.7376 0.0692139 101.357 2.63537 101.357 5.84306C101.357 9.05075 98.7911 11.6169 95.5834 11.6169C92.4292 11.6169 89.8096 9.05075 89.8096 5.84306C89.8096 2.63537 92.3757 0.0692139 95.5834 0.0692139ZM7.21149 22.3092C10.9538 22.3092 14.0011 25.3565 14.0011 29.0988C14.0011 32.8411 10.9538 35.8884 7.21149 35.8884C3.46918 35.8884 0.421875 32.8411 0.421875 29.0988C0.421875 25.3565 3.46918 22.3092 7.21149 22.3092Z" fill="white"/>
</svg>

<svg width="133" height="137" fill="none" xmlns="http://www.w3.org/2000/svg"><path d="M63.56 21.186c-31.97 0-57.899 25.93-57.899 57.9 0 31.969 25.929 57.845 57.899 57.845 31.97 0 57.845-25.929 57.845-57.846 0-31.916-25.928-57.898-57.845-57.898zM26.083 70.96h15.45l-7.858-7.378 3.742-3.956 12.831 12.083-1.871 4.704H26.083V70.96zm61.481 40.952c-1.978 9.997-12.189 3.207-15.985.588-10.585-7.378-15.022 2.78-20.369 5.239-5.506 2.566-12.296-1.657-11.868-9.676C39.93 97.583 50.408 92.665 58 95.284c6.897 2.352 9.944 6.148 15.718 6.897 4.758.641 15.45 1.764 13.846 9.73zm13.419-35.552H78.69l-1.872-4.705L89.65 59.572l3.742 3.956-7.858 7.378h15.45v5.453zm5.507-44.747l-5.828-5.186L119.32 5.362l5.828 5.186-18.658 21.064zm9.943 11.013l-4.544-6.362 16.146-11.495 4.544 6.362-16.146 11.495zm-92.97-15.397L11.008 6.592l6.683-4.064 12.456 20.583-6.682 4.117zM95.584.069c3.155 0 5.774 2.566 5.774 5.774a5.75 5.75 0 01-5.774 5.774c-3.154 0-5.773-2.566-5.773-5.774A5.75 5.75 0 0195.583.07zM7.211 22.31a6.799 6.799 0 016.79 6.79c0 3.742-3.047 6.79-6.79 6.79-3.742 0-6.79-3.048-6.79-6.79s3.048-6.79 6.79-6.79z" fill="#fff"/></svg>
